U-commodities/img/partners/nexttrade.svg

<svg width="160" height="40" viewBox="0 0 160 40" fill="none" xmlns="http://www.w3.org/2000/svg">
<path d="M1.93555 12.9023V27.0958H2.95725V14.7678L12.5119 27.0958H13.3534V12.9023H12.3316V25.2303L2.79691 12.9023H1.93555ZM22.9237 12.9023V13.8351H31.9977V12.9023H22.9237ZM39.1588 12.9023L44.1667 19.7759L38.778 27.0958H39.98L44.7873 20.5262L49.615 27.0958H50.8169L45.4287 19.7558L50.4362 12.9023H49.2943L44.8275 19.0055L40.3607 12.9023H39.1588ZM55.4161 12.9023V13.8351H60.4641V27.0958H61.4858V13.8351H66.5335V12.9023H55.4161ZM71.5532 12.9023V13.8351H76.6009V27.0958H77.6226V13.8351H82.6707V12.9023H71.5532ZM89.8582 12.9023V13.8351H94.8859C96.3682 13.8351 97.5103 14.1797 98.3115 14.8488C99.0927 15.5179 99.4931 16.4707 99.4931 17.6873C99.4931 18.9242 99.0927 19.8772 98.3115 20.5464C97.5103 21.2155 96.3682 21.5399 94.8859 21.5399H89.8582V27.0958H90.8799V22.4525H94.8859C95.2865 22.4525 95.7474 22.4322 96.2482 22.3511L99.5934 27.0958H100.755L97.2496 22.1279C98.2912 21.8238 99.1125 21.2968 99.6734 20.5262C100.234 19.7557 100.535 18.8228 100.535 17.6873C100.535 16.2071 100.034 15.0311 99.0324 14.1794C98.0309 13.3278 96.6487 12.9023 94.8859 12.9023H89.8582ZM113.075 12.9023L106.625 27.0958H107.727L113.576 14.0377L119.445 27.0958H120.547L114.097 12.9023H113.075ZM127.766 12.9023V13.8351H133.235C134.517 13.8351 135.658 14.0985 136.66 14.6257C137.641 15.1529 138.403 15.8828 138.943 16.7952C139.464 17.728 139.745 18.8027 139.745 19.999C139.745 21.2157 139.464 22.2701 138.943 23.2029C138.403 24.1356 137.641 24.8654 136.66 25.3926C135.658 25.9198 134.517 26.163 133.235 26.163H128.788V19.999H127.766V27.0958H133.315C134.757 27.0958 136.059 26.7918 137.181 26.1835C138.302 25.5752 139.184 24.7439 139.825 23.6692C140.446 22.5946 140.766 21.3779 140.766 19.999C140.766 18.6405 140.446 17.4241 139.825 16.3494C139.184 15.2747 138.302 14.4431 137.181 13.8146C136.059 13.2063 134.757 12.9023 133.315 12.9023H127.766ZM148.989 12.9023V13.8351H158.063V12.9023H148.989ZM22.9237 19.4312V20.3438H31.9977V19.4312H22.9237ZM148.989 19.4312V20.3438H158.063V19.4312H148.989ZM22.9237 26.163V27.0958H31.9977V26.163H22.9237ZM148.989 26.163V27.0958H158.063V26.163H148.989Z" fill="#64708B"/>
</svg>

<svg width="160" height="40" fill="none" xmlns="http://www.w3.org/2000/svg"><path d="M1.936 12.902v14.194h1.021V14.768l9.555 12.328h.841V12.902h-1.021V25.23L2.797 12.902h-.861zm20.988 0v.933h9.074v-.933h-9.074zm16.235 0l5.008 6.874-5.389 7.32h1.202l4.807-6.57 4.828 6.57h1.202l-5.388-7.34 5.007-6.854h-1.142l-4.466 6.104-4.467-6.104h-1.202zm16.257 0v.933h5.048v13.26h1.022v-13.26h5.048v-.933H55.416zm16.137 0v.933h5.048v13.26h1.022v-13.26h5.048v-.933H71.553zm18.305 0v.933h5.028c1.482 0 2.624.345 3.425 1.014.782.669 1.182 1.622 1.182 2.838 0 1.237-.4 2.19-1.181 2.86-.802.668-1.944.993-3.426.993h-5.028v5.556h1.022v-4.643h4.006c.4 0 .861-.02 1.362-.102l3.345 4.745h1.162l-3.505-4.968c1.041-.304 1.862-.831 2.423-1.602.561-.77.862-1.703.862-2.839 0-1.48-.501-2.656-1.503-3.508-1.001-.851-2.383-1.277-4.146-1.277h-5.028zm23.217 0l-6.45 14.194h1.102l5.849-13.058 5.869 13.058h1.102l-6.45-14.194h-1.022zm14.691 0v.933h5.469c1.282 0 2.423.263 3.425.79a5.78 5.78 0 012.283 2.17c.521.933.802 2.008.802 3.204 0 1.217-.281 2.271-.802 3.204a5.69 5.69 0 01-2.283 2.19c-1.002.527-2.143.77-3.425.77h-4.447v-6.164h-1.022v7.097h5.549c1.442 0 2.744-.304 3.866-.913 1.121-.608 2.003-1.44 2.644-2.514.621-1.074.941-2.291.941-3.67 0-1.358-.32-2.575-.941-3.65-.641-1.074-1.523-1.906-2.644-2.534-1.122-.609-2.424-.913-3.866-.913h-5.549zm21.223 0v.933h9.074v-.933h-9.074zm-126.065 6.53v.912h9.074v-.913h-9.074zm126.065 0v.912h9.074v-.913h-9.074zm-126.065 6.73v.933h9.074v-.933h-9.074zm126.065 0v.933h9.074v-.933h-9.074z" fill="#64708B"/></svg>
